storage/app/icons/phosphoricons/bold/textbox-bold.svg

<svg xmlns="http://www.w3.org/2000/svg" fill="currentColor" viewBox="0 0 256 256"><path d="M112 36a12 12 0 0 0-12 12v12H24A20 20 0 0 0 4 80v96a20 20 0 0 0 20 20h76v12a12 12 0 0 0 24 0V48a12 12 0 0 0-12-12M28 172V84h72v88Zm224-92v96a20 20 0 0 1-20 20h-80a12 12 0 0 1 0-24h76V84h-76a12 12 0 0 1 0-24h80a20 20 0 0 1 20 20M88 112a12 12 0 0 1-12 12v20a12 12 0 0 1-24 0v-20a12 12 0 0 1 0-24h24a12 12 0 0 1 12 12"/></svg>

<svg xmlns="http://www.w3.org/2000/svg" viewBox="0 0 256 256" fill="currentColor"><path d="M112,36a12,12,0,0,0-12,12V60H24A20,20,0,0,0,4,80v96a20,20,0,0,0,20,20h76v12a12,12,0,0,0,24,0V48A12,12,0,0,0,112,36ZM28,172V84h72v88ZM252,80v96a20,20,0,0,1-20,20H152a12,12,0,0,1,0-24h76V84H152a12,12,0,0,1,0-24h80A20,20,0,0,1,252,80ZM88,112a12,12,0,0,1-12,12v20a12,12,0,0,1-24,0V124a12,12,0,0,1,0-24H76A12,12,0,0,1,88,112Z"/></svg>
